packages/icons/raw/shadcn/server-off.svg

<svg width="24" height="24" viewBox="0 0 24 24" fill="none" xmlns="http://www.w3.org/2000/svg">
<path d="M7 2H20C20.5304 2 21.0391 2.21071 21.4142 2.58579C21.7893 2.96086 22 3.46957 22 4V8C22 8.53043 21.7893 9.03914 21.4142 9.41421C21.0391 9.78929 20.5304 10 20 10H15" stroke="black" stroke-width="2" stroke-linecap="round" stroke-linejoin="round"/>
<path d="M10 9.99992L2.5 2.49992C2 1.99992 2 2.49992 2 4.99992V7.99992C2 8.53035 2.21071 9.03906 2.58579 9.41413C2.96086 9.7892 3.46957 9.99992 4 9.99992H10Z" stroke="black" stroke-width="2" stroke-linecap="round" stroke-linejoin="round"/>
<path d="M22 17V16C22 15.4696 21.7893 14.9609 21.4142 14.5858C21.0391 14.2107 20.5304 14 20 14H19" stroke="black" stroke-width="2" stroke-linecap="round" stroke-linejoin="round"/>
<path d="M4 14C3.46957 14 2.96086 14.2107 2.58579 14.5858C2.21071 14.9609 2 15.4696 2 16V20C2 20.5304 2.21071 21.0391 2.58579 21.4142C2.96086 21.7893 3.46957 22 4 22H20.5L21.5 21.5L22 22L14 14H4Z" stroke="black" stroke-width="2" stroke-linecap="round" stroke-linejoin="round"/>
<path d="M6 18H6.01" stroke="black" stroke-width="2" stroke-linecap="round" stroke-linejoin="round"/>
<path d="M2 2L22 22" stroke="black" stroke-width="2" stroke-linecap="round" stroke-linejoin="round"/>
</svg>

<!-- @license lucide-static v1.23.0 - ISC -->
<svg
  class="lucide lucide-server-off"
  xmlns="http://www.w3.org/2000/svg"
  width="24"
  height="24"
  viewBox="0 0 24 24"
  fill="none"
  stroke="currentColor"
  stroke-width="2"
  stroke-linecap="round"
  stroke-linejoin="round"
>
  <path d="M7 2h13a2 2 0 0 1 2 2v4a2 2 0 0 1-2 2h-5" />
  <path d="M10 10 2.5 2.5C2 2 2 2.5 2 5v3a2 2 0 0 0 2 2h6z" />
  <path d="M22 17v-1a2 2 0 0 0-2-2h-1" />
  <path d="M4 14a2 2 0 0 0-2 2v4a2 2 0 0 0 2 2h16.5l1-.5.5.5-8-8H4z" />
  <path d="M6 18h.01" />
  <path d="m2 2 20 20" />
</svg>
